client/src/assets/images/video/like.svg

<svg width="24px" height="24px" viewBox="0 0 24 24" version="1.1" xmlns="http://www.w3.org/2000/svg" xmlns:xlink="http://www.w3.org/1999/xlink">
    <g stroke="none" stroke-width="1" fill="none" fill-rule="evenodd" stroke-linecap="round">
        <g transform="translate(-708.000000, -643.000000)" stroke="#000000" stroke-width="2">
            <g id="256" transform="translate(708.000000, 643.000000)">
                <path d="M6,14 C6,16.5 6.5,19 8,19 L16.9938335,19 C17.5495239,19 18.1819788,18.5956028 18.4072817,18.0949295 L20.8562951,12.6526776 C21.7640882,10.6353595 20.7154925,9 18.5092545,9 L15.5,9 C15.5,9 18.5,3 15,3 C12.5,3 11.5,9 8,9 C6.5,9 6,11.5 6,14 Z" id="Path-188" stroke-linejoin="round"></path>
                <path d="M4,8.5 C4,8.5 3,11 3,14 C3,17 4,19.5 4,19.5" id="Path-189"></path>
            </g>
        </g>
    </g>
</svg>

<svg xmlns="http://www.w3.org/2000/svg" viewBox="0 0 24 24">
  <defs/>
  <g fill="none" fill-rule="evenodd" stroke="#000" stroke-linecap="round" stroke-width="2">
    <path stroke-linejoin="round" d="M6 14c0 2.5.5 5 2 5h9c.5 0 1.2-.4 1.4-1l2.5-5.3c.9-2-.2-3.7-2.4-3.7h-3s3-6-.5-6c-2.5 0-3.5 6-7 6-1.5 0-2 2.5-2 5z"/>
    <path d="M4 8.5S3 11 3 14s1 5.5 1 5.5"/>
  </g>
</svg>
